img/icon/list-before-2.svg

<svg width="34" height="40" viewBox="0 0 34 40" fill="none" xmlns="http://www.w3.org/2000/svg">
<path fill-rule="evenodd" clip-rule="evenodd" d="M23.7249 3.09195V10.6624C28.9559 10.9483 33.1181 15.0269 33.1181 20C33.1181 24.9731 28.9557 29.0517 23.7247 29.3376V36.908C23.7247 38.6128 22.3377 39.9999 20.6328 39.9999H3.09854C1.3937 39.9999 0.0065918 38.6129 0.0065918 36.908V29.6673C0.0065918 29.343 0.269404 29.0802 0.593701 29.0802C0.917998 29.0802 1.18081 29.343 1.18081 29.6673V33.1898H22.5507V29.3378C21.5588 29.2841 20.5901 29.0943 19.6611 28.7704L15.278 31.1612C14.812 31.4153 14.2648 30.9412 14.445 30.4452L15.7527 26.8493H9.04769C8.8937 26.8493 8.74128 26.7866 8.63253 26.6773L3.93589 21.9807C3.82706 21.8715 3.76401 21.7201 3.76401 21.5656V8.72805C3.76401 8.40383 4.02683 8.14094 4.35112 8.14094H19.3804C19.7047 8.14094 19.9675 8.40383 19.9675 8.72805V11.1298C20.7867 10.8719 21.653 10.7115 22.5507 10.6624V6.18398H1.18089V26.8884C1.18089 27.2127 0.918076 27.4755 0.593779 27.4755C0.269482 27.4755 0.00666992 27.2127 0.00666992 26.8884V3.09195C0.00666992 1.38711 1.39378 0 3.09862 0H20.6329C22.3378 0 23.7249 1.38711 23.7249 3.09195ZM20.6329 38.8259C21.6904 38.8259 22.5507 37.9655 22.5507 36.908V34.364H1.18081V36.908C1.18081 37.9655 2.04112 38.8259 3.09862 38.8259H20.6329ZM1.18081 5.00977V3.09195C1.18081 2.03453 2.04104 1.17414 3.09862 1.17414H20.6328C21.6903 1.17414 22.5507 2.03453 22.5507 3.09195V5.00977H1.18081ZM5.76847 22.1527L8.46073 24.8449V22.1527H5.76847ZM9.63487 25.6752V21.5655C9.63487 21.2413 9.37206 20.9784 9.04776 20.9784H4.93815V9.31508H18.7933V11.5796C18.1886 11.8548 17.6182 12.1859 17.0888 12.5651C17.0226 12.5392 16.9509 12.5245 16.8755 12.5245H13.7445C13.4202 12.5245 13.1574 12.7874 13.1574 13.1116C13.1574 13.4359 13.4202 13.6987 13.7445 13.6987H15.7682C15.195 14.2873 14.7009 14.9447 14.3014 15.6557H7.4823C7.158 15.6557 6.89519 15.9186 6.89519 16.2428C6.89519 16.567 7.158 16.8299 7.4823 16.8299H13.748C13.3661 17.8204 13.1575 18.8878 13.1575 20.0002C13.1575 22.0834 13.8753 24.0544 15.2022 25.6753H9.63487V25.6752ZM19.8202 27.579C20.8746 27.9778 21.9909 28.18 23.1378 28.18C27.9935 28.18 31.944 24.5105 31.944 19.9999C31.944 15.4894 27.9935 11.8198 23.1378 11.8198C18.2821 11.8198 14.3315 15.4894 14.3315 19.9999C14.3315 22.2172 15.2718 24.2933 16.9792 25.8456C17.1555 26.0059 17.2175 26.2567 17.1361 26.4806L16.0795 29.3865L19.3314 27.6127C19.4816 27.5308 19.6601 27.5184 19.8202 27.579ZM10.6133 2.50492H13.1182C13.4425 2.50492 13.7053 2.76773 13.7053 3.09203C13.7053 3.41625 13.4425 3.67914 13.1182 3.67914H10.6133C10.289 3.67914 10.0262 3.41625 10.0262 3.09203C10.0262 2.76781 10.289 2.50492 10.6133 2.50492ZM13.1182 35.0685H10.6133C10.289 35.0685 10.0262 35.3314 10.0262 35.6556V37.5343C10.0262 37.8585 10.289 38.1214 10.6133 38.1214H13.1182C13.4425 38.1214 13.7053 37.8585 13.7053 37.5343V35.6556C13.7053 35.3313 13.4425 35.0685 13.1182 35.0685ZM12.5311 36.9472H11.2004V36.2427H12.5311V36.9472ZM11.2396 12.5245H7.48222C7.15792 12.5245 6.89511 12.7873 6.89511 13.1116C6.89511 13.4358 7.15792 13.6987 7.48222 13.6987H11.2396C11.5639 13.6987 11.8267 13.4358 11.8267 13.1116C11.8267 12.7873 11.5639 12.5245 11.2396 12.5245ZM7.48222 18.7867H11.8658C12.1901 18.7867 12.4528 19.0495 12.4529 19.3738C12.4529 19.698 12.1901 19.9609 11.8658 19.9609H7.48222C7.15792 19.9609 6.89511 19.698 6.89511 19.3738C6.89511 19.0496 7.15792 18.7867 7.48222 18.7867ZM26.2298 18.1213C26.2298 18.4455 25.967 18.7084 25.6427 18.7084C25.3184 18.7084 25.0556 18.4455 25.0555 18.1213V17.4951C25.0555 16.783 24.4761 16.2035 23.7639 16.2035H22.8246C21.9398 16.2035 21.22 16.9234 21.22 17.8082C21.22 18.693 21.9398 19.4129 22.8246 19.4129H23.4509C24.9832 19.4129 26.2298 20.6595 26.2298 22.1918C26.2298 23.6316 25.129 24.819 23.7249 24.957V26.2622C23.7249 26.5864 23.4621 26.8493 23.1378 26.8493C22.8135 26.8493 22.5507 26.5864 22.5507 26.2622V24.9706H22.5115C21.1519 24.9706 20.0457 23.8645 20.0457 22.5048C20.0457 22.1806 20.3085 21.9177 20.6328 21.9177C20.9571 21.9177 21.22 22.1806 21.22 22.5048C21.22 23.217 21.7993 23.7964 22.5115 23.7964H23.4508C24.3357 23.7964 25.0555 23.0766 25.0555 22.1917C25.0555 21.3069 24.3357 20.587 23.4508 20.587H22.8246C21.2923 20.587 20.0457 19.3405 20.0457 17.8082C20.0457 16.3684 21.1465 15.181 22.5507 15.043V13.7377C22.5507 13.4135 22.8135 13.1506 23.1378 13.1506C23.4621 13.1506 23.7249 13.4135 23.7249 13.7377V15.0293H23.764C25.1236 15.0293 26.2298 16.1355 26.2298 17.4951V18.1213Z" fill="white"/>
</svg>

<svg width="34" height="40" fill="none" xmlns="http://www.w3.org/2000/svg"><path fill-rule="evenodd" clip-rule="evenodd" d="M23.725 3.092v7.57c5.23.286 9.393 4.365 9.393 9.338 0 4.973-4.162 9.052-9.393 9.338v7.57A3.095 3.095 0 0120.633 40H3.099a3.095 3.095 0 01-3.092-3.092v-7.24a.587.587 0 111.174 0v3.522h21.37v-3.852a10.478 10.478 0 01-2.89-.568l-4.383 2.391c-.466.254-1.013-.22-.833-.716l1.308-3.596H9.048a.591.591 0 01-.415-.172l-4.697-4.696a.593.593 0 01-.172-.415V8.728c0-.324.263-.587.587-.587h15.03c.324 0 .587.263.587.587v2.402c.819-.258 1.685-.419 2.583-.468V6.184H1.18v20.704a.587.587 0 11-1.174 0V3.092A3.096 3.096 0 013.099 0h17.534a3.096 3.096 0 013.092 3.092zm-3.092 35.734a1.92 1.92 0 001.918-1.918v-2.544H1.18v2.544a1.92 1.92 0 001.918 1.918h17.534zM1.18 5.01V3.092a1.92 1.92 0 011.918-1.918h17.534a1.92 1.92 0 011.918 1.918V5.01H1.18zm4.587 17.143l2.693 2.692v-2.692H5.768zm3.867 3.522v-4.11a.587.587 0 00-.587-.587h-4.11V9.315h13.855v2.265a10.14 10.14 0 00-1.704.985.584.584 0 00-.213-.04h-3.132a.587.587 0 100 1.174h2.024a9.427 9.427 0 00-1.467 1.957H7.482a.587.587 0 100 1.174h6.266a8.788 8.788 0 00-.59 3.17c0 2.083.717 4.054 2.044 5.675H9.635zM19.82 27.58a9.343 9.343 0 003.318.601c4.855 0 8.806-3.67 8.806-8.18s-3.95-8.18-8.806-8.18c-4.856 0-8.807 3.67-8.807 8.18 0 2.217.94 4.293 2.648 5.846.177.16.239.41.157.635l-1.056 2.905 3.251-1.773a.587.587 0 01.49-.034zM10.613 2.505h2.505a.587.587 0 110 1.174h-2.505a.587.587 0 110-1.174zm2.505 32.563h-2.505a.587.587 0 00-.587.588v1.878c0 .325.263.587.587.587h2.505a.587.587 0 00.587-.587v-1.878a.587.587 0 00-.587-.587zm-.587 1.88h-1.33v-.705h1.33v.704zM11.24 12.523H7.482a.587.587 0 100 1.175h3.758a.587.587 0 100-1.175zm-3.758 6.263h4.384a.587.587 0 110 1.174H7.482a.587.587 0 110-1.174zm18.748-.666a.587.587 0 11-1.175 0v-.626c0-.712-.579-1.292-1.291-1.292h-.94c-.884 0-1.604.72-1.604 1.605s.72 1.605 1.605 1.605h.626a2.782 2.782 0 012.779 2.779c0 1.44-1.101 2.627-2.505 2.765v1.305a.587.587 0 11-1.174 0v-1.291h-.04a2.469 2.469 0 01-2.465-2.466.587.587 0 111.174 0c0 .712.58 1.291 1.292 1.291h.939c.885 0 1.604-.72 1.604-1.604 0-.885-.72-1.605-1.604-1.605h-.626a2.782 2.782 0 01-2.78-2.779c0-1.44 1.101-2.627 2.506-2.765v-1.305a.587.587 0 111.174 0v1.291h.039a2.469 2.469 0 012.466 2.466v.626z" fill="#fff"/></svg>
